X:144
T:Jupon Rouge. THO5.144, La
T:Red Peticoat(translated). THO5.144, The
M:6/8
L:1/8
N:2/4 time sig obviously incorrect, changed to 6/8
B:Thompson's Complete Collection of 200 Favourite Dances Vol.5
F:https://www.libraryofdance.org/manuals/1780c-Thompson-Compleat-5.pdf
Z:vmp. Peter Dunk 2024
Q:3/8=110
K:D
"^NB"A|A2d FED|[E2A,2][EA,] [E2A,2][FA,]|G2F EDE|D3 A,DF|
A2d FED||[E2A,2][EA,] [E2A,2][FA,]|G2F EDE|D3-D2:|
|:A|A2d fed|ecA A2A|e2f gfe|afd d2A|
B2B gec|daf d2A|B2B gec|d3 D2:|
W:
W:Cast off 2 Couples, up again ./.
W:Change sides, back again ./:
W:Lead down the middle, up again, cast off :/.
W:Allemand with your partner :/:

